TV/Source/KMTV - Dark.svg

<svg height="688.79999mm" viewBox="0 0 883.83014 688.79999" width="883.83014mm" xmlns="http://www.w3.org/2000/svg" xmlns:xlink="http://www.w3.org/1999/xlink"><radialGradient id="a" cx="0" cy="0" gradientTransform="matrix(-9.1989226 -9.5743888 -9.5743888 9.1989226 138.08513 406.53353)" gradientUnits="userSpaceOnUse" r="1" spreadMethod="pad"><stop offset="0" stop-color="#fff"/><stop offset="1" stop-color="#26a9e1"/></radialGradient><clipPath id="b"><path d="m109.842 380.062h33.945v23.308h-33.945z"/></clipPath><g clip-path="url(#b)" transform="matrix(35.276584 0 0 -35.276584 -4073.10847 14131.19985)"><g transform="translate(121.0125 384.453)"><path d="m0 0-1.71 2.568 1.71 1.816zm7.075 4.776c-.833 0-1.335-.241-1.817-.863-.341.642-.752.863-1.656.863-.642 0-1.184-.291-1.595-.853v.702h-1.78-.227-2.111l-1.315-1.605v3.673h-2.067v-7.516h2.067v1.645l.362.351 1.134-1.996h1.93.548 1.539v3.03c0 .602.251.943.693.943.471 0 .672-.251.672-.833v-3.14h2.087v3.03c0 .291.03.462.101.582.1.201.341.331.582.331.461 0 .672-.281.672-.873v-3.07h2.107v3.582c0 1.204-.772 2.017-1.926 2.017" fill="#201d1d"/></g><g transform="translate(138.7304 383.6295)"><path d="m0 0h-2.448l-1.385 4.154h-1.41v-1.946c0-.653.09-.743.753-.743h.1c.11 0 .12 0 .271.01v-1.505c-.442-.03-.683-.04-1.084-.04-.993 0-1.485.16-1.816.582-.241.301-.311.602-.311 1.304v2.338h-.903v1.295h.903v1.676l2.087.514v-2.19h.978 1.319.889l.833-3.312.893 3.312h2.117z" fill="#27a9e1"/></g><g transform="translate(129.0168 381.4073)"><path d="m0 0c-.145 0-.252.185-.252.477 0 .277.095.473.234.471.175 0 .25-.216.25-.486 0-.277-.089-.462-.232-.462m-.016 1.292c-.47 0-.798-.333-.798-.815 0-.557.339-.827.814-.827.514 0 .8.308.8.812 0 .502-.259.83-.816.83" fill="#27a9e1"/></g><g transform="translate(124.0217 381.3939)"><path d="m0 0h-.086v.968h.086c.241 0 .341-.225.341-.464 0-.279-.1-.5-.341-.504m0 1.263h-.693v-.295h.141v-.968h-.141v-.297h.684c.559 0 .873.293.873.801 0 .426-.314.759-.864.759" fill="#27a9e1"/></g><g transform="translate(130.5377 381.9873)"><path d="m0 0h-.102v.379h.113c.132 0 .207-.067.207-.198 0-.119-.086-.181-.218-.181m.746-.437v-.074c0-.045-.019-.071-.053-.071-.041 0-.054.055-.054.151 0 .161-.141.295-.298.317.189.027.33.15.33.324 0 .254-.103.459-.63.459h-.739v-.292h.127v-.973h-.127v-.294h.734v.294h-.138v.346c.202 0 .227-.049.227-.252 0-.261.143-.415.441-.415.252 0 .332.172.332.357v.123z" fill="#27a9e1"/></g><g transform="translate(122.1747 381.8087)"><path d="m0 0 .148.482.15-.482zm.966-.419-.402 1.267h-.873v-.288h.093l-.307-.979h-.154v-.293h.722v.293h-.177l.048.151h.466l.048-.151h-.216v-.293h.911v.293z" fill="#27a9e1"/></g><g transform="translate(118.7791 382.3665)"><path d="m0 0h-.111l-.546-1.269h-.418l-.602 1.269h-.115v-.29h-.334v.286h-.191v-.969h.189v-.296h-.846v.296h.186v.969h-.195v-.286h-.334v.58h1.515.01.828l-.002-.29h-.123l.193-.5c.037-.109.066-.207.071-.27h.011c.005.063.037.172.082.284l.207.486h-.118l-.003.29h.646z" fill="#27a9e1"/></g><g transform="translate(121.4677 382.3688)"><path d="m0 0h-.125v-.982h.125v-.29h-.718v.29h.129l-.002.745v.132h-.009c-.018-.1-.05-.248-.066-.299l-.239-.868h-.475l-.254.89c-.012.038-.041.166-.048.277h-.009v-.879h.13v-.288h-.616v.288h.122v.984h-.12v.288h.861l.23-.835.218.835h.866z" fill="#27a9e1"/></g><g transform="translate(126.253 382.1636)"><path d="m0 0h-.393v.199h-.364v-.308h.432v-.297h-.432v-.364h.364v.208h.393v-.504h-1.371v.296h.144v.969h-.144v.294h1.371z" fill="#27a9e1"/></g><g transform="translate(128.2029 382.1636)"><path d="m0 0h-.402v.199h-.344v-.389h.432v-.296h-.432v-.284h.232v-.296h-.845v.296h.141v.969h-.141v.294h1.359z" fill="#27a9e1"/></g><g transform="translate(133.7308 381.0971)"><path d="m0 0h-.886v.29h.154l-.245.379-.169-.14v-.239h.123v-.29h-.716v.29h.123v.982h-.123v.287h.716v-.287h-.123v-.364l.423.364h-.163v.287h.756v-.287h-.131l-.33-.279.459-.703h.132z" fill="#27a9e1"/></g><g transform="translate(135.1411 382.1636)"><path d="m0 0h-.393v.199h-.364v-.308h.432v-.297h-.432v-.364h.364v.208h.393v-.504h-1.371v.296h.144v.969h-.144v.294h1.371z" fill="#27a9e1"/></g><g transform="translate(136.9657 382.3688)"><path d="m0 0h-.15v-1.272h-.489l-.579.85v-.562h.175v-.288h-.698v.288h.134v.984h-.132v.288h.653l.559-.819-.003.531h-.154v.288h.684z" fill="#27a9e1"/></g><g transform="translate(138.5195 382.0765)"><path d="m0 0h-.334v.286h-.191v-.969h.189v-.296h-.846v.296h.186v.969h-.195v-.286h-.334v.58h1.525z" fill="#27a9e1"/></g><g transform="translate(137.865 394.3484)"><path d="m0 0-14.934-3.244c-.19-.041-.307.08-.259.269l1.321 6.348c.048.189.245.354.439.367l9.051 1.795c.228.038.307-.002.308-.003.079-.032.152-.094.279-.241l3.909-4.95c.128-.147.076-.301-.114-.341m.946.071-4.533 5.671c-.144.166-.385.327-.667.269-.127-.026-9.814-1.84-9.814-1.84-.307-.021-.588-.255-.652-.469l-1.985-7.332c-.262-.886.439-1.435 1.149-1.272l16.305 3.798c.456.117.638.666.197 1.175" fill="#201d1d"/></g></g><path d="m133.646 400.571c-.126-.026-9.814-1.84-9.814-1.84-.307-.021-.588-.255-.652-.469l-1.985-7.333c-.262-.885.439-1.434 1.149-1.271l16.305 3.797c.456.118.638.667.198 1.175l-4.534 5.672c-.123.142-.318.281-.55.281-.037 0-.077-.004-.117-.012m-10.939-8.986 1.321 6.348c.048.188.246.353.439.366l9.052 1.795c.227.039.307-.002.307-.002.079-.032.153-.094.279-.241l3.909-4.951c.128-.146.077-.3-.114-.34l-14.934-3.245c-.024-.005-.048-.008-.07-.008-.148 0-.231.114-.189.278" fill="url(#a)" transform="matrix(35.276584 0 0 -35.276584 -4073.10847 14131.19985)"/></svg>

<?xml version="1.0" encoding="UTF-8" standalone="no"?>
<!-- Created with Inkscape (http://www.inkscape.org/) -->

<svg
   xmlns:dc="http://purl.org/dc/elements/1.1/"
   xmlns:cc="http://creativecommons.org/ns#"
   xmlns:rdf="http://www.w3.org/1999/02/22-rdf-syntax-ns#"
   xmlns:svg="http://www.w3.org/2000/svg"
   xmlns="http://www.w3.org/2000/svg"
   xmlns:sodipodi="http://sodipodi.sourceforge.net/DTD/sodipodi-0.dtd"
   xmlns:inkscape="http://www.inkscape.org/namespaces/inkscape"
   width="883.83014mm"
   height="688.79999mm"
   viewBox="0 0 883.83014 688.79999"
   version="1.1"
   id="svg8617"
   inkscape:version="0.92.1 r15371"
   sodipodi:docname="KMTV - Dark.svg">
  <defs
     id="defs8611">
    <radialGradient
       fx="0"
       fy="0"
       cx="0"
       cy="0"
       r="1"
       gradientUnits="userSpaceOnUse"
       gradientTransform="matrix(-9.1989226,-9.5743888,-9.5743888,9.1989226,138.08513,406.53353)"
       spreadMethod="pad"
       id="radialGradient642">
      <stop
         style="stop-opacity:1;stop-color:#ffffff"
         offset="0"
         id="stop638" />
      <stop
         style="stop-opacity:1;stop-color:#26a9e1"
         offset="1"
         id="stop640" />
    </radialGradient>
    <clipPath
       clipPathUnits="userSpaceOnUse"
       id="clipPath564">
      <path
         d="m 109.842,380.062 h 33.945 v 23.308 h -33.945 z"
         id="path562"
         inkscape:connector-curvature="0" />
    </clipPath>
  </defs>
  <sodipodi:namedview
     id="base"
     pagecolor="#ffffff"
     bordercolor="#666666"
     borderopacity="1.0"
     inkscape:pageopacity="0.0"
     inkscape:pageshadow="2"
     inkscape:zoom="0.175"
     inkscape:cx="1354.2267"
     inkscape:cy="1989.5265"
     inkscape:document-units="mm"
     inkscape:current-layer="layer1"
     showgrid="false"
     fit-margin-top="0"
     fit-margin-left="0"
     fit-margin-right="0"
     fit-margin-bottom="0"
     inkscape:window-width="1920"
     inkscape:window-height="1017"
     inkscape:window-x="-8"
     inkscape:window-y="-8"
     inkscape:window-maximized="1" />
  <metadata
     id="metadata8614">
    <rdf:RDF>
      <cc:Work
         rdf:about="">
        <dc:format>image/svg+xml</dc:format>
        <dc:type
           rdf:resource="http://purl.org/dc/dcmitype/StillImage" />
        <dc:title></dc:title>
      </cc:Work>
    </rdf:RDF>
  </metadata>
  <g
     inkscape:label="Layer 1"
     inkscape:groupmode="layer"
     id="layer1"
     transform="translate(147.29433,621.18885)">
    <g
       transform="matrix(35.276584,0,0,-35.276584,-4220.4028,13510.011)"
       id="g558">
      <g
         id="g560"
         clip-path="url(#clipPath564)">
        <g
           id="g566"
           transform="translate(121.0125,384.453)">
          <path
             d="M 0,0 -1.71,2.568 0,4.384 Z M 7.075,4.776 C 6.242,4.776 5.74,4.535 5.258,3.913 4.917,4.555 4.506,4.776 3.602,4.776 2.96,4.776 2.418,4.485 2.007,3.923 V 4.625 H 0.227 0 -2.111 L -3.426,3.02 v 3.673 h -2.067 v -7.516 h 2.067 v 1.645 l 0.362,0.351 1.134,-1.996 H 0 0.548 2.087 v 3.03 c 0,0.602 0.251,0.943 0.693,0.943 0.471,0 0.672,-0.251 0.672,-0.833 v -3.14 h 2.087 v 3.03 c 0,0.291 0.03,0.462 0.101,0.582 0.1,0.201 0.341,0.331 0.582,0.331 0.461,0 0.672,-0.281 0.672,-0.873 v -3.07 h 2.107 v 3.582 c 0,1.204 -0.772,2.017 -1.926,2.017"
             style="fill:#201d1d;fill-opacity:1;fill-rule:nonzero;stroke:none"
             id="path568"
             inkscape:connector-curvature="0" />
        </g>
        <g
           id="g570"
           transform="translate(138.7304,383.6295)">
          <path
             d="m 0,0 h -2.448 l -1.385,4.154 h -1.41 V 2.208 c 0,-0.653 0.09,-0.743 0.753,-0.743 h 0.1 c 0.11,0 0.12,0 0.271,0.01 V -0.03 c -0.442,-0.03 -0.683,-0.04 -1.084,-0.04 -0.993,0 -1.485,0.16 -1.816,0.582 C -7.26,0.813 -7.33,1.114 -7.33,1.816 v 2.338 h -0.903 v 1.295 h 0.903 v 1.676 l 2.087,0.514 v -2.19 h 0.978 1.319 0.889 l 0.833,-3.312 0.893,3.312 h 2.117 z"
             style="fill:#27a9e1;fill-opacity:1;fill-rule:nonzero;stroke:none"
             id="path572"
             inkscape:connector-curvature="0" />
        </g>
        <g
           id="g574"
           transform="translate(129.0168,381.4073)">
          <path
             d="m 0,0 c -0.145,0 -0.252,0.185 -0.252,0.477 0,0.277 0.095,0.473 0.234,0.471 0.175,0 0.25,-0.216 0.25,-0.486 C 0.232,0.185 0.143,0 0,0 m -0.016,1.292 c -0.47,0 -0.798,-0.333 -0.798,-0.815 0,-0.557 0.339,-0.827 0.814,-0.827 0.514,0 0.8,0.308 0.8,0.812 0,0.502 -0.259,0.83 -0.816,0.83"
             style="fill:#27a9e1;fill-opacity:1;fill-rule:nonzero;stroke:none"
             id="path576"
             inkscape:connector-curvature="0" />
        </g>
        <g
           id="g578"
           transform="translate(124.0217,381.3939)">
          <path
             d="M 0,0 H -0.086 V 0.968 H 0 C 0.241,0.968 0.341,0.743 0.341,0.504 0.341,0.225 0.241,0.004 0,0 M 0,1.263 H -0.693 V 0.968 h 0.141 V 0 h -0.141 v -0.297 h 0.684 c 0.559,0 0.873,0.293 0.873,0.801 C 0.864,0.93 0.55,1.263 0,1.263"
             style="fill:#27a9e1;fill-opacity:1;fill-rule:nonzero;stroke:none"
             id="path580"
             inkscape:connector-curvature="0" />
        </g>
        <g
           id="g582"
           transform="translate(130.5377,381.9873)">
          <path
             d="M 0,0 H -0.102 V 0.379 H 0.011 C 0.143,0.379 0.218,0.312 0.218,0.181 0.218,0.062 0.132,0 0,0 m 0.746,-0.437 v -0.074 c 0,-0.045 -0.019,-0.071 -0.053,-0.071 -0.041,0 -0.054,0.055 -0.054,0.151 0,0.161 -0.141,0.295 -0.298,0.317 0.189,0.027 0.33,0.15 0.33,0.324 0,0.254 -0.103,0.459 -0.63,0.459 H -0.698 V 0.377 h 0.127 V -0.596 H -0.698 V -0.89 h 0.734 v 0.294 h -0.138 v 0.346 c 0.202,0 0.227,-0.049 0.227,-0.252 0,-0.261 0.143,-0.415 0.441,-0.415 0.252,0 0.332,0.172 0.332,0.357 v 0.123 z"
             style="fill:#27a9e1;fill-opacity:1;fill-rule:nonzero;stroke:none"
             id="path584"
             inkscape:connector-curvature="0" />
        </g>
        <g
           id="g586"
           transform="translate(122.1747,381.8087)">
          <path
             d="M 0,0 0.148,0.482 0.298,0 Z M 0.966,-0.419 0.564,0.848 H -0.309 V 0.56 h 0.093 l -0.307,-0.979 h -0.154 v -0.293 h 0.722 v 0.293 h -0.177 l 0.048,0.151 H 0.382 L 0.43,-0.419 H 0.214 v -0.293 h 0.911 v 0.293 z"
             style="fill:#27a9e1;fill-opacity:1;fill-rule:nonzero;stroke:none"
             id="path588"
             inkscape:connector-curvature="0" />
        </g>
        <g
           id="g590"
           transform="translate(118.7791,382.3665)">
          <path
             d="M 0,0 H -0.111 L -0.657,-1.269 H -1.075 L -1.677,0 h -0.115 v -0.29 h -0.334 v 0.286 h -0.191 v -0.969 h 0.189 v -0.296 h -0.846 v 0.296 h 0.186 v 0.969 H -2.983 V -0.29 h -0.334 v 0.58 h 1.515 0.01 0.828 L -0.966,0 h -0.123 l 0.193,-0.5 c 0.037,-0.109 0.066,-0.207 0.071,-0.27 h 0.011 c 0.005,0.063 0.037,0.172 0.082,0.284 L -0.525,0 H -0.643 L -0.646,0.29 H 0 Z"
             style="fill:#27a9e1;fill-opacity:1;fill-rule:nonzero;stroke:none"
             id="path592"
             inkscape:connector-curvature="0" />
        </g>
        <g
           id="g594"
           transform="translate(121.4677,382.3688)">
          <path
             d="M 0,0 H -0.125 V -0.982 H 0 v -0.29 h -0.718 v 0.29 h 0.129 l -0.002,0.745 v 0.132 H -0.6 c -0.018,-0.1 -0.05,-0.248 -0.066,-0.299 L -0.905,-1.272 H -1.38 l -0.254,0.89 c -0.012,0.038 -0.041,0.166 -0.048,0.277 h -0.009 v -0.879 h 0.13 v -0.288 h -0.616 v 0.288 h 0.122 V 0 h -0.12 v 0.288 h 0.861 l 0.23,-0.835 0.218,0.835 H 0 Z"
             style="fill:#27a9e1;fill-opacity:1;fill-rule:nonzero;stroke:none"
             id="path596"
             inkscape:connector-curvature="0" />
        </g>
        <g
           id="g598"
           transform="translate(126.253,382.1636)">
          <path
             d="m 0,0 h -0.393 v 0.199 h -0.364 v -0.308 h 0.432 V -0.406 H -0.757 V -0.77 h 0.364 v 0.208 H 0 v -0.504 h -1.371 v 0.296 h 0.144 V 0.199 H -1.371 V 0.493 H 0 Z"
             style="fill:#27a9e1;fill-opacity:1;fill-rule:nonzero;stroke:none"
             id="path600"
             inkscape:connector-curvature="0" />
        </g>
        <g
           id="g602"
           transform="translate(128.2029,382.1636)">
          <path
             d="M 0,0 H -0.402 V 0.199 H -0.746 V -0.19 h 0.432 V -0.486 H -0.746 V -0.77 h 0.232 v -0.296 h -0.845 v 0.296 h 0.141 V 0.199 H -1.359 V 0.493 H 0 Z"
             style="fill:#27a9e1;fill-opacity:1;fill-rule:nonzero;stroke:none"
             id="path604"
             inkscape:connector-curvature="0" />
        </g>
        <g
           id="g606"
           transform="translate(133.7308,381.0971)">
          <path
             d="m 0,0 h -0.886 v 0.29 h 0.154 L -0.977,0.669 -1.146,0.529 V 0.29 h 0.123 V 0 h -0.716 v 0.29 h 0.123 v 0.982 h -0.123 v 0.287 h 0.716 V 1.272 H -1.146 V 0.908 l 0.423,0.364 H -0.886 V 1.559 H -0.13 V 1.272 H -0.261 L -0.591,0.993 -0.132,0.29 H 0 Z"
             style="fill:#27a9e1;fill-opacity:1;fill-rule:nonzero;stroke:none"
             id="path608"
             inkscape:connector-curvature="0" />
        </g>
        <g
           id="g610"
           transform="translate(135.1411,382.1636)">
          <path
             d="m 0,0 h -0.393 v 0.199 h -0.364 v -0.308 h 0.432 V -0.406 H -0.757 V -0.77 h 0.364 v 0.208 H 0 v -0.504 h -1.371 v 0.296 h 0.144 V 0.199 H -1.371 V 0.493 H 0 Z"
             style="fill:#27a9e1;fill-opacity:1;fill-rule:nonzero;stroke:none"
             id="path612"
             inkscape:connector-curvature="0" />
        </g>
        <g
           id="g614"
           transform="translate(136.9657,382.3688)">
          <path
             d="m 0,0 h -0.15 v -1.272 h -0.489 l -0.579,0.85 v -0.562 h 0.175 v -0.288 h -0.698 v 0.288 h 0.134 V 0 h -0.132 v 0.288 h 0.653 L -0.527,-0.531 -0.53,0 H -0.684 V 0.288 H 0 Z"
             style="fill:#27a9e1;fill-opacity:1;fill-rule:nonzero;stroke:none"
             id="path616"
             inkscape:connector-curvature="0" />
        </g>
        <g
           id="g618"
           transform="translate(138.5195,382.0765)">
          <path
             d="m 0,0 h -0.334 v 0.286 h -0.191 v -0.969 h 0.189 v -0.296 h -0.846 v 0.296 h 0.186 V 0.286 H -1.191 V 0 H -1.525 V 0.58 H 0 Z"
             style="fill:#27a9e1;fill-opacity:1;fill-rule:nonzero;stroke:none"
             id="path620"
             inkscape:connector-curvature="0" />
        </g>
        <g
           id="g622"
           transform="translate(137.865,394.3484)">
          <path
             d="m 0,0 -14.934,-3.244 c -0.19,-0.041 -0.307,0.08 -0.259,0.269 l 1.321,6.348 c 0.048,0.189 0.245,0.354 0.439,0.367 l 9.051,1.795 C -4.154,5.573 -4.075,5.533 -4.074,5.532 -3.995,5.5 -3.922,5.438 -3.795,5.291 L 0.114,0.341 C 0.242,0.194 0.19,0.04 0,0 M 0.946,0.071 -3.587,5.742 C -3.731,5.908 -3.972,6.069 -4.254,6.011 -4.381,5.985 -14.068,4.171 -14.068,4.171 -14.375,4.15 -14.656,3.916 -14.72,3.702 l -1.985,-7.332 c -0.262,-0.886 0.439,-1.435 1.149,-1.272 l 16.305,3.798 c 0.456,0.117 0.638,0.666 0.197,1.175"
             style="fill:#201d1d;fill-opacity:1;fill-rule:nonzero;stroke:none"
             id="path624"
             inkscape:connector-curvature="0" />
        </g>
      </g>
    </g>
    <g
       transform="matrix(35.276584,0,0,-35.276584,-4220.4028,13510.011)"
       id="g626">
      <g
         id="g628">
        <g
           id="g634">
          <g
             id="g636">
            <path
               d="m 133.646,400.571 c -0.126,-0.026 -9.814,-1.84 -9.814,-1.84 v 0 c -0.307,-0.021 -0.588,-0.255 -0.652,-0.469 v 0 l -1.985,-7.333 c -0.262,-0.885 0.439,-1.434 1.149,-1.271 v 0 l 16.305,3.797 c 0.456,0.118 0.638,0.667 0.198,1.175 v 0 l -4.534,5.672 c -0.123,0.142 -0.318,0.281 -0.55,0.281 v 0 c -0.037,0 -0.077,-0.004 -0.117,-0.012 m -10.939,-8.986 1.321,6.348 c 0.048,0.188 0.246,0.353 0.439,0.366 v 0 l 9.052,1.795 c 0.227,0.039 0.307,-0.002 0.307,-0.002 v 0 c 0.079,-0.032 0.153,-0.094 0.279,-0.241 v 0 l 3.909,-4.951 c 0.128,-0.146 0.077,-0.3 -0.114,-0.34 v 0 l -14.934,-3.245 c -0.024,-0.005 -0.048,-0.008 -0.07,-0.008 v 0 c -0.148,0 -0.231,0.114 -0.189,0.278"
               style="fill:url(#radialGradient642);stroke:none"
               id="path644"
               inkscape:connector-curvature="0" />
          </g>
        </g>
      </g>
    </g>
  </g>
</svg>
